build/img/High-contrast-face-smile.svg

<?xml version="1.0" encoding="UTF-8" standalone="no"?>
<!-- Created with Inkscape (http://www.inkscape.org/) -->
<svg xmlns:dc="http://purl.org/dc/elements/1.1/" xmlns:cc="http://web.resource.org/cc/" xmlns:rdf="http://www.w3.org/1999/02/22-rdf-syntax-ns#" xmlns:svg="http://www.w3.org/2000/svg" xmlns="http://www.w3.org/2000/svg" xmlns:xlink="http://www.w3.org/1999/xlink" xmlns:sodipodi="http://sodipodi.sourceforge.net/DTD/sodipodi-0.dtd" xmlns:inkscape="http://www.inkscape.org/namespaces/inkscape" width="48px" height="48px" id="svg1872" sodipodi:version="0.32" inkscape:version="0.44" sodipodi:docbase="/home/luca/Artwork/blackwhite-icon-theme/scalable/emotes" sodipodi:docname="face-smile.svg">

  <g id="layer1" inkscape:label="Layer 1" inkscape:groupmode="layer">
    <path sodipodi:type="arc" style="fill:white;fill-opacity:1;fill-rule:evenodd;stroke:none;stroke-width:1px;stroke-linecap:butt;stroke-linejoin:miter;stroke-opacity:1" id="path3653" sodipodi:cx="24" sodipodi:cy="24" sodipodi:rx="24" sodipodi:ry="24" d="M 48 24 A 24 24 0 1 1  0,24 A 24 24 0 1 1  48 24 z"/>
    <path sodipodi:type="arc" style="fill:green;fill-opacity:1;fill-rule:evenodd;stroke:none;stroke-width:1px;stroke-linecap:butt;stroke-linejoin:miter;stroke-opacity:1" id="path1880" sodipodi:cx="23.932585" sodipodi:cy="23.932585" sodipodi:rx="20.022472" sodipodi:ry="20.022472" d="M 43.955057 23.932585 A 20.022472 20.022472 0 1 1  3.9101124,23.932585 A 20.022472 20.022472 0 1 1  43.955057 23.932585 z"/>
    <path sodipodi:type="arc" style="fill:white;fill-opacity:1;fill-rule:evenodd;stroke:none;stroke-width:1px;stroke-linecap:butt;stroke-linejoin:miter;stroke-opacity:1" id="path4540" sodipodi:cx="24" sodipodi:cy="24" sodipodi:rx="16" sodipodi:ry="16" d="M 40 24 A 16 16 0 1 1  8,24 A 16 16 0 1 1  40 24 z"/>
    <path sodipodi:type="arc" style="fill:green;fill-opacity:1;fill-rule:evenodd;stroke:none;stroke-width:1px;stroke-linecap:butt;stroke-linejoin:miter;stroke-opacity:1" id="path5427" sodipodi:cx="15" sodipodi:cy="18" sodipodi:rx="4" sodipodi:ry="3.9662924" d="M 19 18 A 4 3.9662924 0 1 1  11,18 A 4 3.9662924 0 1 1  19 18 z" transform="translate(2,0)"/>
    <path style="fill:none;fill-opacity:0.75;fill-rule:evenodd;stroke:green;stroke-width:4;stroke-linecap:round;stroke-linejoin:miter;stroke-opacity:1;stroke-miterlimit:4;stroke-dasharray:none" d="M 13,27 C 19,35 29,35 35,27" id="path6316" sodipodi:nodetypes="cc"/>
    <use x="0" y="0" xlink:href="#path5427" id="use7203" transform="translate(14,0)" width="48" height="48" />
  </g>
</svg>

<svg xmlns="http://www.w3.org/2000/svg" xmlns:xlink="http://www.w3.org/1999/xlink" width="48" height="48"><path d="M48 24a24 24 0 11-48 0 24 24 0 1148 0z" fill="#fff" fill-rule="evenodd"/><path d="M43.955 23.933a20.022 20.022 0 11-40.045 0 20.022 20.022 0 1140.045 0z" fill="green" fill-rule="evenodd"/><path d="M40 24a16 16 0 11-32 0 16 16 0 1132 0z" fill="#fff" fill-rule="evenodd"/><path id="a" d="M19 18a4 3.966 0 11-8 0 4 3.966 0 118 0z" transform="translate(2)" fill="green" fill-opacity="1" fill-rule="evenodd" stroke="none" stroke-width="1" stroke-linecap="butt" stroke-linejoin="miter" stroke-opacity="1"/><path d="M13 27c6 8 16 8 22 0" fill="none" stroke="green" stroke-width="4" stroke-linecap="round"/><use xlink:href="#a" transform="translate(14)" width="48" height="48"/></svg>
